!!!COM: Bach, Johann Sebastian
!!!OPR: Joh. Seb. Bachs vierstimmige Choralges‰nge
!!!XEN: Four-part Chorales
!!!OTL: 130. Mitten wir im Leben sind
!!!SCT: BWV 383
!!!SCA: Thematisch-systematisches Verzeichnis der musikalischen Werke Johann Sebastian Bach: Bach-Werke-Verzeichnis (Schmieder)
!!!YOR: Bach Gesellschaft Edition xxxix
!!!ENC: Steven Rasmussen
!!!CDT: 1685/3//-1750/7/28/
!!!OCY: Deutschland
!!!YEC: Copyright (c) 1994, 2000 Center for Computer Assisted Research in the Humanities
!!!YEM: Rights to all derivative editions reserved
!!!YEN: United States of America
**kern	**silbe	**kern	**silbe	**kern	**silbe	**kern	**silbe
*I:[SOPRANO]	*I:[SOPRANO]	*I:[ALTO]	*I:[ALTO]	*I:[TENORE]	*I:[TENORE]	*I:[BASSO]	*I:[BASSO]
*>[A,A,B]	*	*>[A,A,B]	*	*>[A,A,B]	*	*>[A,A,B]	*
*>A	*	*>A	*	*>A	*	*>A	*
*clefG2	*	*clefG2	*	*clefGv2	*	*clefF4	*
*k[]	*	*k[]	*	*k[]	*	*k[]	*
*a:	*	*a:	*	*a:	*	*a:	*
*M4/4	*	*M4/4	*	*M4/4	*	*M4/4	*
=1-	=1-	=1-	=1-	=1-	=1-	=1-	=1-
4g	Mit-wen	4e	.	4B	.	4E	.
4g	-tensuch'n	4e	.	4B	.	8EL	.
.	.	.	.	.	.	8DJ	.
4a	wirwir,	4e	.	4c	.	8CL	.
.	.	.	.	.	.	8BBJ	.
4b	imder	4e	.	4B	.	8AAL	.
.	.	.	.	.	.	8GG#J	.
=2	=2	=2	=2	=2	=2	=2	=2
4cc	Le-H√ºl-	8eL	Le-H√ºl-	4.A	Le-H√ºl-	4.AA	.
.	.	16f#L	.	.	.	.	.
.	.	16g#JJ	.	.	.	.	.
4cc	-ben-fe	4a	.	.	.	.	.
.	.	.	.	8e	.	8C	.
(2b	sindtu',	4a	-ben-fe	8fL	.	8DL	.
.	.	.	.	8dJ	.	8BBJ	.
.	.	4g#	.	8BL	-ben-fe	4E	.
.	.	.	.	16eL	.	.	.
.	.	.	.	16dJJ	.	.	.
=3	=3	=3	=3	=3	=3	=3	=3
2a;)	.	2e;	sindtu',	2c;	sindtu',	2AA;	.
4b	mitdass	4g	.	4d	.	8GL	.
.	.	.	.	.	.	8FJ	.
4cc	demwir	4g	.	4e	.	4E	.
=4	=4	=4	=4	=4	=4	=4	=4
4dd	TodGnad'	8aL	.	8fL	.	8DL	.
.	.	8gJ	.	8eJ	.	8EJ	.
4a	um-er-	4f	.	4d	.	4F	.
4g	-fan--lan-	8fL	.	8dL	.	8BBL	.
.	.	[8eJ	.	16cL	.	8CJ	.
.	.	.	.	16B-JJ	.	.	.
4f	.	8eL]	.	8AL	.	4D	.
.	.	16dL	.	16BnL	.	.	.
.	.	16cJJ	.	16AJJ	.	.	.
=5	=5	=5	=5	=5	=5	=5	=5
1e;	-gen;-gen?	1B;	.	1G#;	.	1E;	.
=6:|!	=6:|!	=6:|!	=6:|!	=6:|!	=6:|!	=6:|!	=6:|!
*>B	*	*>B	*	*>B	*	*>B	*
4r	.	4r	.	4r	.	4r	.
4d	Das	4B	.	4G	.	8GL	.
.	.	.	.	.	.	8FJ	.
4e	bist	8cL	.	4G	.	4E	.
.	.	8BJ	.	.	.	.	.
4f	du	4c	.	8cL	.	4A	.
.	.	.	.	8AJ	.	.	.
=7	=7	=7	=7	=7	=7	=7	=7
4.g	Herr	8dL	.	4B	.	8GL	.
.	.	8eJ	.	.	.	8GGJ	.
.	.	8eL	.	8cL	.	8AAL	.
8f	al-	8dJ	.	8GJ	.	8BBJ	.
4e	-lei-	8dL	.	[4G	.	4C	.
.	.	[8cJ	.	.	.	.	.
4d	.	8cL]	.	8.GL]	.	4GG	.
.	.	8BJ	.	.	.	.	.
.	.	.	.	16FJk	.	.	.
=8	=8	=8	=8	=8	=8	=8	=8
2c;	-ne.	2G;	.	2E;	.	2CC;	.
4r	.	4r	.	4r	.	4r	.
4c	Uns	4G	.	4G	.	8EL	.
.	.	.	.	.	.	8FJ	.
=9	=9	=9	=9	=9	=9	=9	=9
4g	reu-	4c	.	4G	.	8EL	.
.	.	.	.	.	.	8DJ	.
4g	-et	8cL	.	4c	.	8EL	.
.	.	8eJ	.	.	.	8CJ	.
4a	uns'-	4f	.	8cL	.	4F	.
.	.	.	.	8dJ	.	.	.
4b	-re	8fL	.	4d	.	4GG#	.
.	.	8eJ	.	.	.	.	.
=10	=10	=10	=10	=10	=10	=10	=10
4cc	Mis-	8eL	Mis-	8cL	.	8AAL	Mis-
.	.	16aL	.	8dJ	.	8BB	.
.	.	16g#JJ	.	.	.	.	.
4cc	-se-	[4a	.	[4e	.	8C	.
.	.	.	.	.	.	8DJ	.
(2b	-tat,	8aL]	.	8eL]	.	2E	-se-
.	.	16g#L	.	8BJ	.	.	.
.	.	16f#JJ	.	.	.	.	.
.	.	4g#	-se-	8eL	.	.	.
.	.	.	.	8dJ	.	.	.
=11	=11	=11	=11	=11	=11	=11	=11
2a;)	.	2e;	-tat,	2c;	.	2AA;	-tat,
4b	die	4g#	.	4e	.	4E	.
4cc	dich,	4a	.	4e	.	8AL	.
.	.	.	.	.	.	8GJ	.
=12	=12	=12	=12	=12	=12	=12	=12
4dd	Herr,	8aL	.	4d	.	8FL	.
.	.	8gJ	.	.	.	8EJ	.
4a	er-	4f	.	8dL	.	4D	.
.	.	.	.	8cJ	.	.	.
4g	-z√ºr-	4e	.	4B-	.	8DL	.
.	.	.	.	.	.	8C#J	.
4f	-net	8eL	.	4A	.	8DL	.
.	.	8dJ	.	.	.	8FJ	.
=13	=13	=13	=13	=13	=13	=13	=13
2e;	hat.	2c#;	.	2A;	.	2A;	.
4r	.	4r	.	4r	.	4r	.
4a	Hei-	8fL	.	4c	.	4FF	.
.	.	8eJ	.	.	.	.	.
=14	=14	=14	=14	=14	=14	=14	=14
4g	-li-	4d	.	8cL	.	4GG	.
.	.	.	.	8BJ	.	.	.
4e	-ger	8dL	.	4A	.	4AA	.
.	.	8cJ	.	.	.	.	.
4f	Her-	4d	.	4A	.	8DL	.
.	.	.	.	.	.	8CJ	.
8.gL	-re	4d	.	8GL	.	8BBL	.
.	.	.	.	8BJ	.	8GGJ	.
16fJk	.	.	.	.	.	.	.
=15	=15	=15	=15	=15	=15	=15	=15
2e;	Gott,	2c;	.	2c;	.	2AA;	.
4r	.	4r	.	4r	.	4r	.
4a	hei-	4e	.	4c	.	4AA	.
=16	=16	=16	=16	=16	=16	=16	=16
4g	-li-	4d	.	4B	.	4BB	.
4e	-ger	8dL	.	4G	.	4C	.
.	.	16cL	.	.	.	.	.
.	.	16BJJ	.	.	.	.	.
4f	star-	4A	.	8FL	.	4D	.
.	.	.	.	8EJ	.	.	.
4g	-ker	8dL	.	8DL	.	8BBL	.
.	.	8BJ	.	8GJ	.	8GGJ	.
=17	=17	=17	=17	=17	=17	=17	=17
2e;	Gott,	2c;	.	2G;	.	2C;	.
4a	hei-	4e	.	4c	.	8AAL	.
.	.	.	.	.	.	8CJ	.
4g	-li-	4e	.	4B	.	8EL	.
.	.	.	.	.	.	8DJ	.
=18	=18	=18	=18	=18	=18	=18	=18
4a	-ger	4e	.	4c	.	8CL	.
.	.	.	.	.	.	8BBJ	.
4b	barm-	4e	.	4B	.	8AAL	.
.	.	.	.	.	.	8GG#J	.
4cc	-herz'-	8eL	.	4A	.	4AA	.
.	.	8fJ	.	.	.	.	.
8bL	-ger	8gL	.	4d	.	4BB	.
8aJ	.	8fJ	.	.	.	.	.
=19	=19	=19	=19	=19	=19	=19	=19
4g	Hei-	8fL	.	8GL	.	4C	.
.	.	[8eJ	.	16cL	.	.	.
.	.	.	.	16BJJ	.	.	.
4f	.	8eL]	.	8AL	.	4D	.
.	.	16dL	.	16BL	.	.	.
.	.	16cJJ	.	16AJJ	.	.	.
4e;	-land,	4B;	.	4G#;	.	4E;	.
4d	du	4B-	.	4Gn	.	4G	.
=20	=20	=20	=20	=20	=20	=20	=20
2a	e-	4c	e-	4A	e-	8FL	e-
.	.	.	.	.	.	8E	.
.	.	4.f	.	4.d	.	8D	.
.	.	.	.	.	.	8CJ	.
4g	-wi-	.	.	.	.	8BBL	-wi-
.	.	4e	-wi-	8B	-wi-	8GGJ	.
4f	-ger	.	.	8cL	-ger	8AAL	-ger
.	.	8d	-ger	8GJ	.	8BBJ	.
=21	=21	=21	=21	=21	=21	=21	=21
2e;	Gott,	2c;	.	2G;	.	2C;	.
4a	lass	4e	.	4c	.	8CL	.
.	.	.	.	.	.	8DJ	.
4g	uns	8eL	.	8cL	.	4E	.
.	.	8dJ	.	8B-J	.	.	.
=22	=22	=22	=22	=22	=22	=22	=22
4a	nicht	4c	.	8AL	.	8FL	.
.	.	.	.	8GJ	.	8EJ	.
4b	ver-	4d	.	4F	.	4D	.
8ccL	-sin-	8e	.	8GL	.	4C	.
8bJ	.	4g	.	8e	.	.	.
4a	.	.	.	8B	.	4D	.
.	.	8f#	.	16dL	.	.	.
.	.	.	.	16cJJ	.	.	.
=23	=23	=23	=23	=23	=23	=23	=23
2g;	-ken	2g;	.	2B;	.	2E;	.
4cc	in	4g	.	4e	.	8EL	.
.	.	.	.	.	.	8FJ	.
4b	der	4g	.	8dL	.	4G	.
.	.	.	.	8eJ	.	.	.
=24	=24	=24	=24	=24	=24	=24	=24
4dd	bit-	8aL	.	8fL	.	8DL	.
.	.	8gJ	.	8eJ	.	8EJ	.
4a	-tern	8fL	.	8dL	.	4F	.
.	.	8eJ	.	8cJ	.	.	.
4g	To-	8dL	.	8BL	.	8FL	.
.	.	8eJ	.	8c#J	.	8EJ	.
4f	-des-	8AL	.	8dL	.	8DL	.
.	.	8dJ	.	8AJ	.	8FJ	.
=25	=25	=25	=25	=25	=25	=25	=25
2e;	-not.	2c#;	.	2A;	.	2A;	.
4r	.	4r	.	4r	.	4r	.
4d	Ky-	4d	Ky-	8AL	.	8FL	.
.	.	.	.	8GJ	.	8EJ	.
=26	=26	=26	=26	=26	=26	=26	=26
2a	-rie	4d	-rie	8FL	.	4D	.
.	.	.	.	8EJ	.	.	.
.	.	8cL	e-	4F	.	8AAL	.
.	.	8dJ	.	.	.	8BBJ	.
4g	e-	[4e	-lei-	8EL	.	8CL	.
.	.	.	.	[8A	.	8C#J	.
4f	-lei-	8eL]	.	8A]	.	4D	.
.	.	16dL	.	16BL	.	.	.
.	.	16cJJ	.	16AJJ	.	.	.
=27	=27	=27	=27	=27	=27	=27	=27
1e;	-son!	1B;	-son!	1G#;	.	1E;	.
==|!	==|!	==|!	==|!	==|!	==|!	==|!	==|!
*-	*-	*-	*-	*-	*-	*-	*-
!!!RWG: Key is interpreted using the Humdrum key tool.
!!!END: 1994/07/18
!!!EMD: Converted from MuseData to Humdrum Dec 19, 2000, by Andreas Kornstaedt using muse2kern.
!!!EED: Craig Stuart Sapp
!!!EEV: 2024/03/31
!!!ONB: Some non-unicode characters
